build/images/icons/users.svg

<svg xmlns="http://www.w3.org/2000/svg" width="32" height="24"><path d="M31.95 22.503v.002a.993.993 0 01-.995.992h-7.412c.556-.123.972-.614.972-1.205l-.001-.002h.001s0-4.504-3.301-6.142c-1.412-.7-1.505-.566-2.206-.732l.02-1.95s-.771-.588-1.011-2.431c-.482.14-.641-.564-.67-1.012-.026-.431-.279-1.783.31-1.661-.121-.902-.207-1.715-.165-2.147.148-1.512 1.61-3.093 3.861-3.207 2.649.114 3.698 1.694 3.845 3.206.043.432-.051 1.246-.172 2.146.589-.12.333 1.228.304 1.661-.025.448-.188 1.149-.669 1.009-.241 1.843-1.012 2.426-1.012 2.426l.018 1.948s.488.278 2.546 1.127c2.058.851 1.412.214 3.088 1.045 2.649 1.314 2.649 4.927 2.649 4.927zM17.023 15.84c2.262.935 1.552.235 3.395 1.15 2.912 1.443 2.912 5.415 2.912 5.415h-.001v.003a1.09 1.09 0 01-1.093 1.089H1.093A1.09 1.09 0 010 22.408v-.003h-.001s0-3.972 2.912-5.417c1.843-.913 1.133-.171 3.395-1.106 2.262-.933 2.798-1.26 2.798-1.26l.021-2.152s-.847-.646-1.11-2.67c-.53.153-.705-.621-.736-1.113-.029-.475-.307-1.96.339-1.825-.132-.992-.227-1.886-.18-2.359.162-1.664 1.769-3.4 4.244-3.528 2.911.126 4.065 1.863 4.226 3.525.047.475-.056 1.369-.189 2.359.647-.132.366 1.35.334 1.825-.028.493-.207 1.263-.736 1.11-.264 2.026-1.111 2.666-1.111 2.666l.019 2.142s.536.304 2.798 1.238z"/></svg>

<svg 
 xmlns="http://www.w3.org/2000/svg"
 xmlns:xlink="http://www.w3.org/1999/xlink"
 width="32px" height="24px">
<path 
 d="M31.950,22.503 C31.950,22.504 31.950,22.505 31.950,22.505 C31.950,23.054 31.504,23.497 30.955,23.497 L23.543,23.497 C24.099,23.374 24.515,22.883 24.515,22.292 C24.515,22.291 24.514,22.291 24.514,22.290 L24.515,22.290 C24.515,22.290 24.515,17.786 21.214,16.148 C19.802,15.448 19.709,15.582 19.008,15.416 L19.028,13.466 C19.028,13.466 18.257,12.878 18.017,11.035 C17.535,11.175 17.376,10.471 17.347,10.023 C17.321,9.592 17.068,8.240 17.657,8.362 C17.536,7.460 17.450,6.647 17.492,6.215 C17.640,4.703 19.102,3.122 21.353,3.008 C24.002,3.122 25.051,4.702 25.198,6.214 C25.241,6.646 25.147,7.460 25.026,8.360 C25.615,8.240 25.359,9.588 25.330,10.021 C25.305,10.469 25.142,11.170 24.661,11.030 C24.420,12.873 23.649,13.456 23.649,13.456 L23.667,15.404 C23.667,15.404 24.155,15.682 26.213,16.531 C28.271,17.382 27.625,16.745 29.301,17.576 C31.950,18.890 31.950,22.503 31.950,22.503 L31.950,22.503 ZM17.023,15.840 C19.285,16.775 18.575,16.075 20.418,16.990 C23.330,18.433 23.330,22.405 23.330,22.405 L23.329,22.405 C23.329,22.405 23.329,22.406 23.329,22.408 C23.329,23.010 22.840,23.497 22.236,23.497 L1.093,23.497 C0.489,23.497 -0.000,23.010 -0.000,22.408 C-0.000,22.406 0.000,22.405 0.000,22.405 L-0.001,22.405 C-0.001,22.405 -0.001,18.433 2.911,16.988 C4.754,16.075 4.044,16.817 6.306,15.882 C8.568,14.949 9.104,14.622 9.104,14.622 L9.125,12.470 C9.125,12.470 8.278,11.824 8.015,9.800 C7.485,9.953 7.310,9.179 7.279,8.687 C7.250,8.212 6.972,6.727 7.618,6.862 C7.486,5.870 7.391,4.976 7.438,4.503 C7.600,2.839 9.207,1.103 11.682,0.975 C14.593,1.101 15.747,2.838 15.908,4.500 C15.955,4.975 15.852,5.869 15.719,6.859 C16.366,6.727 16.085,8.209 16.053,8.684 C16.025,9.177 15.846,9.947 15.317,9.794 C15.053,11.820 14.206,12.460 14.206,12.460 L14.225,14.602 C14.225,14.602 14.761,14.906 17.023,15.840 Z"/>
</svg>
